X:28
T:Reel Saint Jean
M:4/4
L:1/8
K:D
fe |: dBB2 FBdB | fBdf bfed | cAA2 EAce | cAce Affe |
fBB2 FBdB | dBdf BdcB | ABcd efec |1 dBcA B2fe :|2 dBcA B2A2 |:
d2dc defg | a2ab afdf | d'2d'b afde | feed dcBA |
d2dc defg | a2ab afdf | d'2db afde | f2e2 d2A2 :|

